X: 21138
T: Kate And Davy
R: reel
M: 4/4
K: Cmajor
cABG AF D2|FGAB cAAd|cABG AFDe|fdeg fd d2:|
|:de f2 fagf|ecgc ecgc|de f2 fagf|ecde fd d2:|

